X: 1
T: Big Terry McAloon's
M: 4/4
L: 1/8
R: reel
K: Dmaj
a2 ag fdde | fdad fdfg | a2 ag fdde | fded cA A2 |
a2 ag fdde | fdad fd d2 | c3 d efge | aged cA A2 :|
AEAB =c2 cd | e2 d=c BG G2 | AEAB =c2 cd | e2 ed ea a2 |
AEAB =c2 cd | e2 d=c BG G2 | F3 G AB=cA | d=cAG FD D2 :|
